i/reskin/nav/rocket.svg

<?xml version="1.0" encoding="UTF-8" standalone="no"?>
<svg width="32px" height="32px" viewBox="0 0 32 32" version="1.1" xmlns="http://www.w3.org/2000/svg" xmlns:xlink="http://www.w3.org/1999/xlink" xmlns:sketch="http://www.bohemiancoding.com/sketch/ns">
    <!-- Generator: Sketch 3.3.3 (12081) - http://www.bohemiancoding.com/sketch -->
    <title>nav/rocket</title>
    <desc>Created with Sketch.</desc>
    <defs></defs>
    <g id="Page-1" stroke="none" stroke-width="1" fill="none" fill-rule="evenodd" sketch:type="MSPage">
        <g id="nav/rocket" sketch:type="MSArtboardGroup" stroke="#F6F6F6" stroke-width="1.2" stroke-linecap="round" stroke-linejoin="round">
            <path d="M16.46011,6.4114658 C12.656017,4.7731402 8.074436,5.50700064 4.967738,8.614349 C4.3302498,9.251838 3.8047614,9.955745 3.36718,10.697419 L7.830901,15.161791" id="Stroke-9" sketch:type="MSShapeGroup"></path>
            <path d="M25.55634,15.4666 C27.23569,19.285019 26.512247,23.905019 23.385363,27.0319 C22.747874,27.66939 22.043967,28.19488 21.301642,28.63246 L16.7982,24.129019" id="Stroke-11" sketch:type="MSShapeGroup"></path>
            <path d="M13.255476,26.11126 L5.88822,18.744 C5.88822,18.744 12.181057,3.0893953 29.83148,2.168 C28.83389,19.74158 13.255476,26.11126 13.255476,26.11126 L13.255476,26.11126 L13.255476,26.11126 Z" id="Stroke-13" sketch:type="MSShapeGroup"></path>
            <path d="M16.0181072,12.2979372 C17.035223,11.2808209 18.684619,11.2808209 19.701735,12.2979372 C20.718851,13.315053 20.718851,14.964449 19.701735,15.981565 C18.684619,16.998681 17.035223,16.998681 16.0181072,15.981565 C15.0009909,14.964449 15.0009909,13.315053 16.0181072,12.2979372 L16.0181072,12.2979372 L16.0181072,12.2979372 Z" id="Stroke-15" sketch:type="MSShapeGroup"></path>
            <path d="M3.4140617,24.9024372 C4.431178,23.8853209 6.080573,23.8853209 7.09769,24.9024372 C8.114806,25.919553 8.114806,27.568949 7.09769,28.586065 C6.080573,29.603181 2.65089888,29.348577 2.65089888,29.348577 C2.65089888,29.348577 2.3969454,25.919553 3.4140617,24.9024372 L3.4140617,24.9024372 L3.4140617,24.9024372 Z" id="Stroke-17" sketch:type="MSShapeGroup"></path>
        </g>
    </g>
</svg>

<svg width="32" height="32" viewBox="0 0 32 32" xmlns="http://www.w3.org/2000/svg"><title>nav/rocket</title><g stroke="#F6F6F6" stroke-width="1.2" stroke-linecap="round" stroke-linejoin="round" fill="none" fill-rule="evenodd"><path d="M16.46 6.41c-3.804-1.637-8.386-.903-11.492 2.204-.638.638-1.163 1.342-1.6 2.083l4.463 4.465M25.556 15.467c1.68 3.818.956 8.438-2.17 11.565-.638.637-1.342 1.163-2.084 1.6l-4.504-4.503"/><path d="M13.255 26.11l-7.367-7.366S12.18 3.09 29.83 2.168C28.835 19.742 13.256 26.11 13.256 26.11z"/><path d="M16.018 12.298c1.017-1.017 2.667-1.017 3.684 0 1.017 1.017 1.017 2.666 0 3.684-1.017 1.017-2.667 1.017-3.684 0-1.017-1.018-1.017-2.667 0-3.684zM3.414 24.902c1.017-1.017 2.667-1.017 3.684 0 1.017 1.018 1.017 2.667 0 3.684-1.017 1.017-4.447.763-4.447.763s-.253-3.43.764-4.448z"/></g></svg>
